Adwaita++-Light/panel/16/pomodoro-indicator-light-18.svg

<svg height="16" width="16" xmlns="http://www.w3.org/2000/svg">
  <g fill="#444">
    <path d="m8 1c-1.6548 0-3.1768333.5435764-4.375 1.5546875l-1.4101562-1.3984375-1.09375 1.0878906 1.4101562 1.4003906c-.9600111 1.1666666-1.53125 2.7221355-1.53125 4.3554688 0 3.888889 3.1339778 7 7 7 3.866333 0 7-3.111111 7-7 0-1.6333333-.570695-3.1888022-1.53125-4.3554688l1.410156-1.4003906-1.09375-1.0878906-1.410156 1.3984375c-1.197778-1.0111111-2.7198888-1.5546875-4.375-1.5546875zm0 2c2.761429 0 5 2.2142856 5 5 0 2.785714-2.238571 5-5 5-2.7614287 0-5-2.214286-5-5 0-2.7857144 2.2385713-5 5-5z"/>
    <path d="m12 8h-4v-4c.1236173 0 .245925.00561.3666824.016582.12587.011439.2500558.02871.372285.051539.1412378.026379.279863.060181.4154555.100985.1150405.034619.227898.074279.3383159.1187215.1497422.060271.2949974.1293395.4351258.2065657.1143454.063017.2252774.1314659.3324474.2049989.113875.078133.223503.1620066.328466.2512027.105674.089799.20662.1849939.302413.2851579.08908.093146.173706.1905898.253532.2919883.08045.1021943.156031.2084059.226384.3182845.08592.1341845.16404.2738379.233733.4183216.07101.1472036.133259.2994212.186087.4559774.03695.1095139.0693.2211508.0968.3346797.02738.1130411.06374.3380892.08128.4546547.040127.204088.016749.2992622.030993.4903411z"/>
    <path d="m12 8h-4l3.790927 1.2796765c.03695-.1095139.0693-.2211508.0968-.3346797.02738-.1130411.06374-.3380892.08128-.4546547.040127-.204089.016749-.2992632.030993-.4903421z"/>
  </g>
</svg>

<svg xmlns="http://www.w3.org/2000/svg" width="16" height="16" version="1.1">
 <defs>
  <style id="current-color-scheme" type="text/css">
   .ColorScheme-Text { color:#444444; } .ColorScheme-Highlight { color:#4285f4; }
  </style>
 </defs>
 <path style="fill:currentColor" class="ColorScheme-Text" d="M 8 1 C 6.3452 1 4.8231667 1.5435764 3.625 2.5546875 L 2.2148438 1.15625 L 1.1210938 2.2441406 L 2.53125 3.6445312 C 1.5712389 4.8111978 1 6.3666667 1 8 C 1 11.888889 4.1339778 15 8 15 C 11.866333 15 15 11.888889 15 8 C 15 6.3666667 14.429305 4.8111978 13.46875 3.6445312 L 14.878906 2.2441406 L 13.785156 1.15625 L 12.375 2.5546875 C 11.177222 1.5435764 9.6551112 1 8 1 z M 8 3 C 10.761429 3 13 5.2142856 13 8 C 13 10.785714 10.761429 13 8 13 C 5.2385713 13 3 10.785714 3 8 C 3 5.2142856 5.2385713 3 8 3 z"/>
 <path style="fill:currentColor" class="ColorScheme-Text" d="M 12,8 8,8 8,4 c 0.1236173,0 0.245925,0.00561 0.3666824,0.016582 0.12587,0.011439 0.2500558,0.02871 0.372285,0.051539 0.1412378,0.026379 0.279863,0.060181 0.4154555,0.100985 0.1150405,0.034619 0.227898,0.074279 0.3383159,0.1187215 0.1497422,0.060271 0.2949974,0.1293395 0.4351258,0.2065657 0.1143454,0.063017 0.2252774,0.1314659 0.3324474,0.2049989 0.113875,0.078133 0.223503,0.1620066 0.328466,0.2512027 0.105674,0.089799 0.20662,0.1849939 0.302413,0.2851579 0.08908,0.093146 0.173706,0.1905898 0.253532,0.2919883 0.08045,0.1021943 0.156031,0.2084059 0.226384,0.3182845 0.08592,0.1341845 0.16404,0.2738379 0.233733,0.4183216 0.07101,0.1472036 0.133259,0.2994212 0.186087,0.4559774 0.03695,0.1095139 0.0693,0.2211508 0.0968,0.3346797 0.02738,0.1130411 0.06374,0.3380892 0.08128,0.4546547 C 12.009134,7.7137469 11.985756,7.8089211 12,8 Z"/>
 <path style="fill:currentColor" class="ColorScheme-Text" d="m 12,8 -4,0 3.790927,1.2796765 c 0.03695,-0.1095139 0.0693,-0.2211508 0.0968,-0.3346797 0.02738,-0.1130411 0.06374,-0.3380892 0.08128,-0.4546547 C 12.009134,8.2862531 11.985756,8.1910789 12,8 Z"/>
</svg>
